resources/vectors/stoic_mental_health_training.svg

<svg xmlns="http://www.w3.org/2000/svg" xml:space="preserve" width="192" height="192" baseProfile="tiny"><g fill="#56595B"><path d="M94.083 123.414C81.283 123.117 76.817 106 76.817 106H73v18h3.668c.744-4 5.657 1.008 18.309 1.604 5.794.273 13.263-2.164 16.937-6.777 3.318-4.163 4.906-10.503 3.217-15.59-2.055-6.178-8.002-9.028-13.8-10.848-4.186-1.313-8.57-2.329-12.271-4.367-2.147-1.184-4.021-2.84-4.933-5.177-.774-1.983-.157-4.472 1.129-6.11 3.022-3.855 10.02-4.629 14.186-3.158C107.525 76.43 109.416 87 109.416 87H112V72h-2.607c-1.073 4-4.923-.554-13.225-1.384-5.253-.525-10.121 1.326-14.367 4.295-8.123 5.675-9.539 19.258-.613 24.728 2.386 1.463 5.078 2.603 7.686 3.603 8.932 3.422 17.268 5.249 16.075 13.287-1.19 8.037-10.866 6.885-10.866 6.885z"/><circle cx="121.919" cy="120.213" r="5.209"/><path d="m115.297 38-2.604-10.161c-1.051-4.313-5.4-6.703-9.713-5.65l-62.039 15.26c-4.313 1.052-6.981 5.465-5.928 9.777L56 133.438V47.053C56 42.614 59.652 38 64.091 38h51.206zM147.133 53.483 136 52.287V151.1c0 4.439-3.613 7.9-8.053 7.9H64.091c-.131 0-.259.055-.388.049.453 3.614 3.331 6.615 7.109 7.02l63.494 6.833c4.413.474 8.375-2.711 8.85-7.124l11.108-103.449a8.032 8.032 0 0 0-7.131-8.846z"/></g></svg>

<?xml version="1.0" encoding="UTF-8"?><svg id="a" xmlns="http://www.w3.org/2000/svg" width="192" height="192" viewBox="0 0 192 192"><rect x="56" y="38" width="80" height="121" rx="7.48" ry="7.48" style="fill:#fff;"/><path d="M94.08,123.41c-12.8-.3-17.27-17.41-17.27-17.41h-3.82v18h3.67c.74-4,5.66,1.01,18.31,1.6,5.79,.27,13.26-2.16,16.94-6.78,3.32-4.16,4.91-10.5,3.22-15.59-2.06-6.18-8-9.03-13.8-10.85-4.19-1.31-8.57-2.33-12.27-4.37-2.15-1.18-4.02-2.84-4.93-5.18-.77-1.98-.16-4.47,1.13-6.11,3.02-3.86,10.02-4.63,14.19-3.16,8.08,2.85,9.97,13.42,9.97,13.42h2.58v-15h-2.61c-1.07,4-4.92-.55-13.22-1.38-5.25-.53-10.12,1.33-14.37,4.29-8.12,5.68-9.54,19.26-.61,24.73,2.39,1.46,5.08,2.6,7.69,3.6,8.93,3.42,17.27,5.25,16.08,13.29-1.19,8.04-10.87,6.89-10.87,6.89Z" style="fill:#56595b;"/><circle cx="121.92" cy="120.21" r="5.21" style="fill:#56595b;"/><path d="M115.3,38l-2.6-10.16c-1.05-4.31-5.4-6.7-9.71-5.65l-62.04,15.26c-4.31,1.05-6.98,5.47-5.93,9.78l20.99,86.21V47.05c0-4.44,3.65-9.05,8.09-9.05h51.21Zm31.84,15.48l-11.13-1.2v98.81c0,4.44-3.61,7.9-8.05,7.9h-63.86c-.13,0-.26,.05-.39,.05,.45,3.61,3.33,6.62,7.11,7.02l63.49,6.83c4.41,.47,8.38-2.71,8.85-7.12l11.11-103.45c.47-4.41-2.72-8.37-7.13-8.85h0Z" style="fill:#56595b;"/></svg>
